branches/nugui/src/gui/icons/stack_position.svg

<?xml version="1.0" encoding="UTF-8" standalone="no"?>
<!-- Created with Inkscape (http://www.inkscape.org/) -->

<svg
   xmlns:dc="http://purl.org/dc/elements/1.1/"
   xmlns:cc="http://creativecommons.org/ns#"
   xmlns:rdf="http://www.w3.org/1999/02/22-rdf-syntax-ns#"
   xmlns:svg="http://www.w3.org/2000/svg"
   xmlns="http://www.w3.org/2000/svg"
   xmlns:xlink="http://www.w3.org/1999/xlink"
   xmlns:sodipodi="http://sodipodi.sourceforge.net/DTD/sodipodi-0.dtd"
   xmlns:inkscape="http://www.inkscape.org/namespaces/inkscape"
   version="1.0"
   width="100"
   height="100"
   id="svg2"
   sodipodi:version="0.32"
   inkscape:version="0.48.1 r9760"
   sodipodi:docname="stack_position.svg"
   inkscape:output_extension="org.inkscape.output.svg.inkscape">
  <metadata
     id="metadata2566">
    <rdf:RDF>
      <cc:Work
         rdf:about="">
        <dc:format>image/svg+xml</dc:format>
        <dc:type
           rdf:resource="http://purl.org/dc/dcmitype/StillImage" />
      </cc:Work>
    </rdf:RDF>
  </metadata>
  <sodipodi:namedview
     inkscape:window-height="729"
     inkscape:window-width="1018"
     inkscape:pageshadow="2"
     inkscape:pageopacity="0.0"
     guidetolerance="10.0"
     gridtolerance="10.0"
     objecttolerance="10.0"
     borderopacity="1.0"
     bordercolor="#666666"
     pagecolor="#ffffff"
     id="base"
     inkscape:zoom="2.45"
     inkscape:cx="12.022476"
     inkscape:cy="20.504735"
     inkscape:window-x="129"
     inkscape:window-y="54"
     inkscape:current-layer="svg2"
     showgrid="false"
     inkscape:window-maximized="0" />
  <defs
     id="defs4">
    <linearGradient
       inkscape:collect="always"
       xlink:href="#linearGradient3384"
       id="linearGradient3795"
       gradientUnits="userSpaceOnUse"
       gradientTransform="matrix(0.3720963,0.191646,-0.191646,0.3720963,-72.244652,-12.128755)"
       x1="31.565292"
       y1="63.272114"
       x2="90.625114"
       y2="63.345894" />
    <radialGradient
       inkscape:collect="always"
       xlink:href="#linearGradient3252"
       id="radialGradient3792"
       gradientUnits="userSpaceOnUse"
       gradientTransform="matrix(0.2237392,-7.1617456e-2,7.1617456e-2,0.2237392,-86.721032,9.1588278)"
       cx="58.01162"
       cy="63.345894"
       fx="58.01162"
       fy="63.345894"
       r="33.113495" />
    <linearGradient
       inkscape:collect="always"
       id="linearGradient3189">
      <stop
         style="stop-color:#000000;stop-opacity:1;"
         offset="0"
         id="stop3191" />
      <stop
         style="stop-color:#000000;stop-opacity:0;"
         offset="1"
         id="stop3193" />
    </linearGradient>
    <linearGradient
       id="linearGradient3197">
      <stop
         style="stop-color:#e4e0e1;stop-opacity:1;"
         offset="0"
         id="stop3199" />
      <stop
         style="stop-color:#e4afe0;stop-opacity:1;"
         offset="1"
         id="stop3201" />
    </linearGradient>
    <marker
       inkscape:stockid="Arrow1Lend"
       orient="auto"
       refY="0.0"
       refX="0.0"
       id="Arrow1Lend"
       style="overflow:visible;">
      <path
         id="path4357"
         d="M 0.0,0.0 L 5.0,-5.0 L -12.5,0.0 L 5.0,5.0 L 0.0,0.0 z "
         style="fill-rule:evenodd;stroke:#000000;stroke-width:1.0pt;marker-start:none;"
         transform="scale(0.8) rotate(180) translate(12.5,0)" />
    </marker>
    <linearGradient
       id="linearGradient3384">
      <stop
         style="stop-color:#00ffff;stop-opacity:1;"
         offset="0"
         id="stop3386" />
      <stop
         style="stop-color:#000000;stop-opacity:1"
         offset="1"
         id="stop3388" />
    </linearGradient>
    <linearGradient
       id="linearGradient3252">
      <stop
         style="stop-color:#ffffff;stop-opacity:1"
         offset="0"
         id="stop3254" />
      <stop
         style="stop-color:#7f7fff;stop-opacity:0;"
         offset="1"
         id="stop3256" />
    </linearGradient>
    <linearGradient
       inkscape:collect="always"
       xlink:href="#linearGradient3384"
       id="linearGradient2358"
       gradientUnits="userSpaceOnUse"
       gradientTransform="matrix(0.2377304,0.2377304,-0.2377304,0.2377304,39.711053,40.887748)"
       x1="25.398125"
       y1="63.345894"
       x2="90.625114"
       y2="63.345894" />
    <radialGradient
       inkscape:collect="always"
       xlink:href="#linearGradient3252"
       id="radialGradient2360"
       gradientUnits="userSpaceOnUse"
       gradientTransform="matrix(0.1887019,0,0,0.1887019,23.423531,53.628189)"
       cx="58.01162"
       cy="63.345894"
       fx="58.01162"
       fy="63.345894"
       r="33.113495" />
    <radialGradient
       inkscape:collect="always"
       xlink:href="#linearGradient3197"
       id="radialGradient2312"
       gradientUnits="userSpaceOnUse"
       gradientTransform="matrix(-1.7093778,0,0,1.91594,141.7618,8.2882328)"
       cx="50.059151"
       cy="48.853989"
       fx="50.059151"
       fy="48.853989"
       r="42.138133" />
    <radialGradient
       inkscape:collect="always"
       xlink:href="#linearGradient3189"
       id="radialGradient2314"
       gradientUnits="userSpaceOnUse"
       gradientTransform="matrix(-1.7093778,0,0,1.91594,141.7618,8.2882328)"
       cx="50.059151"
       cy="48.853989"
       fx="50.059151"
       fy="48.853989"
       r="42.138133" />
    <radialGradient
       inkscape:collect="always"
       xlink:href="#linearGradient3197"
       id="radialGradient3295"
       gradientUnits="userSpaceOnUse"
       gradientTransform="matrix(-1.7093778,0,0,1.91594,141.7618,8.2882328)"
       cx="50.059151"
       cy="48.853989"
       fx="50.059151"
       fy="48.853989"
       r="42.138133" />
    <radialGradient
       inkscape:collect="always"
       xlink:href="#linearGradient3189"
       id="radialGradient3297"
       gradientUnits="userSpaceOnUse"
       gradientTransform="matrix(-1.7093778,0,0,1.91594,141.7618,8.2882328)"
       cx="50.059151"
       cy="48.853989"
       fx="50.059151"
       fy="48.853989"
       r="42.138133" />
    <linearGradient
       inkscape:collect="always"
       xlink:href="#linearGradient3384"
       id="linearGradient3244"
       gradientUnits="userSpaceOnUse"
       gradientTransform="matrix(0.3720963,0.191646,-0.191646,0.3720963,-72.244652,-12.128755)"
       x1="31.565292"
       y1="63.272114"
       x2="90.625114"
       y2="63.345894" />
    <radialGradient
       inkscape:collect="always"
       xlink:href="#linearGradient3252"
       id="radialGradient3246"
       gradientUnits="userSpaceOnUse"
       gradientTransform="matrix(0.2237392,-0.07161746,0.07161746,0.2237392,-86.721032,9.1588278)"
       cx="58.01162"
       cy="63.345894"
       fx="58.01162"
       fy="63.345894"
       r="33.113495" />
  </defs>
  <path
     transform="matrix(1.021666,0,0,1.021666,-86.851024,-26.188854)"
     d="m 122.4841,47.27103 a 16.939291,16.939291 0 1 1 -33.878584,0 16.939291,16.939291 0 1 1 33.878584,0 z"
     sodipodi:ry="16.939291"
     sodipodi:rx="16.939291"
     sodipodi:cy="47.27103"
     sodipodi:cx="105.54481"
     id="path2346"
     style="fill:#7e8184;fill-opacity:1;fill-rule:evenodd;stroke:none"
     sodipodi:type="arc" />
  <path
     transform="matrix(1.021666,0,0,1.021666,-25.976155,31.494422)"
     d="m 122.4841,47.27103 a 16.939291,16.939291 0 1 1 -33.878584,0 16.939291,16.939291 0 1 1 33.878584,0 z"
     sodipodi:ry="16.939291"
     sodipodi:rx="16.939291"
     sodipodi:cy="47.27103"
     sodipodi:cx="105.54481"
     id="path2391"
     style="fill:none;stroke:#000000;stroke-width:2;stroke-linecap:butt;stroke-linejoin:miter;stroke-miterlimit:4;stroke-opacity:1;stroke-dasharray:2, 4;stroke-dashoffset:0"
     sodipodi:type="arc" />
  <g
     id="g3289"
     transform="matrix(1.0166879,-0.10073255,0.10073255,1.0166879,-5.5641079,0.66047572)">
    <path
       sodipodi:nodetypes="cccccccc"
       id="path4225"
       d="m 45.647241,55.914248 -10.27731,6.400475 34.078218,13.706008 -7.2904,-36.000408 -7.892979,8.72191 C 53.447769,47.760566 43.048658,35.463264 42.350094,34.426163 l -8.617528,7.172015 11.914675,14.31607 z"
       style="fill:#282828;fill-opacity:1;fill-rule:evenodd;stroke:none"
       inkscape:connector-curvature="0" />
    <g
       transform="matrix(-0.4407315,-0.5295606,0.5295606,-0.4407315,43.664998,101.02973)"
       id="g4217">
      <path
         style="fill:none;stroke:#000000;stroke-width:5.63700008;stroke-linecap:round;stroke-linejoin:round;stroke-miterlimit:4;stroke-opacity:1;stroke-dasharray:none;stroke-dashoffset:0"
         d="m 56.191798,40.582064 2.40182,-17.4083 -46.93175,25.292495 46.93175,25.292491 -2.40182,-16.90371 c 1.85373,0 25.22824,-0.1836 27.03386,0 l 0,-16.272976 -27.03386,0 z"
         id="path3242"
         sodipodi:nodetypes="cccccccc"
         inkscape:connector-curvature="0" />
      <path
         style="fill:url(#radialGradient3295);fill-opacity:1;fill-rule:evenodd;stroke:url(#radialGradient3297);stroke-width:4.0367074;stroke-linecap:round;stroke-linejoin:round;stroke-miterlimit:4;stroke-opacity:1;stroke-dashoffset:0"
         d="M 56.191794,40.582064 58.593619,23.173764 11.661867,48.466259 58.593619,73.75875 56.191794,56.85504 c 1.853738,0 25.228243,-0.1836 27.033865,0 l 0,-16.272976 -27.033865,0 z"
         id="path3176"
         sodipodi:nodetypes="cccccccc"
         inkscape:connector-curvature="0" />
    </g>
  </g>
  <g
     id="g3239"
     transform="matrix(1.2403751,0,0,1.2403751,95.415889,-8.6543972)">
    <path
       d="m -49.917482,18.489775 c 2.29982,7.18051 -1.65754,14.8657 -8.83846,17.16427 -7.18092,2.29856 -14.86542,-1.66015 -17.16272,-8.84147 -2.29982,-7.18051 1.65754,-14.8657 8.83845,-17.1642642 7.18092,-2.298564 14.86542,1.6601432 17.16273,8.8414642 l 0,0 z"
       style="fill:#0000ff;fill-opacity:1;fill-rule:evenodd;stroke:#000000;stroke-width:1;stroke-linecap:butt;stroke-linejoin:miter;stroke-miterlimit:4;stroke-opacity:1;stroke-dasharray:none"
       id="path3560"
       inkscape:connector-curvature="0" />
    <path
       d="m -50.663372,28.809965 c -3.45117,6.7036 -11.6837,9.33958 -18.38671,5.88723 -6.703,-3.45234 -9.33753,-11.68533 -5.88401,-18.38773 3.45117,-6.7036072 11.68369,-9.3395799 18.3867,-5.887237 6.703,3.452344 9.33754,11.685337 5.88402,18.387737 l 0,0 z"
       style="opacity:0.71739131;fill:url(#linearGradient3244);fill-opacity:1;fill-rule:evenodd;stroke:none"
       id="path3562"
       inkscape:connector-curvature="0" />
    <path
       d="m -61.907972,16.841445 c 1.29084,4.03025 -0.93033,8.34376 -4.96081,9.63389 -4.03047,1.29013 -8.3436,-0.9318 -9.63302,-4.9625 -1.29083,-4.03025 0.93034,-8.343759 4.96081,-9.633887 4.03048,-1.290129 8.3436,0.931798 9.63302,4.962497 l 0,0 z"
       style="fill:url(#radialGradient3246);fill-opacity:1;fill-rule:evenodd;stroke:none"
       id="path3564"
       inkscape:connector-curvature="0" />
  </g>
</svg>

<?xml version="1.0" encoding="UTF-8" standalone="no"?>
<!-- Created with Inkscape (http://www.inkscape.org/) -->
<svg
   xmlns:dc="http://purl.org/dc/elements/1.1/"
   xmlns:cc="http://web.resource.org/cc/"
   xmlns:rdf="http://www.w3.org/1999/02/22-rdf-syntax-ns#"
   xmlns:svg="http://www.w3.org/2000/svg"
   xmlns="http://www.w3.org/2000/svg"
   xmlns:xlink="http://www.w3.org/1999/xlink"
   xmlns:sodipodi="http://sodipodi.sourceforge.net/DTD/sodipodi-0.dtd"
   xmlns:inkscape="http://www.inkscape.org/namespaces/inkscape"
   version="1.0"
   width="100"
   height="100"
   id="svg2"
   sodipodi:version="0.32"
   inkscape:version="0.45.1"
   sodipodi:docname="stack_position.svg"
   sodipodi:docbase="/home/tris/src/aten/src/gui/icons"
   inkscape:output_extension="org.inkscape.output.svg.inkscape">
  <metadata
     id="metadata2566">
    <rdf:RDF>
      <cc:Work
         rdf:about="">
        <dc:format>image/svg+xml</dc:format>
        <dc:type
           rdf:resource="http://purl.org/dc/dcmitype/StillImage" />
      </cc:Work>
    </rdf:RDF>
  </metadata>
  <sodipodi:namedview
     inkscape:window-height="729"
     inkscape:window-width="1018"
     inkscape:pageshadow="2"
     inkscape:pageopacity="0.0"
     guidetolerance="10.0"
     gridtolerance="10.0"
     objecttolerance="10.0"
     borderopacity="1.0"
     bordercolor="#666666"
     pagecolor="#ffffff"
     id="base"
     inkscape:zoom="0.4331029"
     inkscape:cx="-16.3221"
     inkscape:cy="-127.06086"
     inkscape:window-x="466"
     inkscape:window-y="63"
     inkscape:current-layer="svg2" />
  <defs
     id="defs4">
    <linearGradient
       inkscape:collect="always"
       xlink:href="#linearGradient3384"
       id="linearGradient3795"
       gradientUnits="userSpaceOnUse"
       gradientTransform="matrix(0.3720963,0.191646,-0.191646,0.3720963,-72.244652,-12.128755)"
       x1="31.565292"
       y1="63.272114"
       x2="90.625114"
       y2="63.345894" />
    <radialGradient
       inkscape:collect="always"
       xlink:href="#linearGradient3252"
       id="radialGradient3792"
       gradientUnits="userSpaceOnUse"
       gradientTransform="matrix(0.2237392,-7.1617456e-2,7.1617456e-2,0.2237392,-86.721032,9.1588278)"
       cx="58.01162"
       cy="63.345894"
       fx="58.01162"
       fy="63.345894"
       r="33.113495" />
    <linearGradient
       inkscape:collect="always"
       id="linearGradient3189">
      <stop
         style="stop-color:#000000;stop-opacity:1;"
         offset="0"
         id="stop3191" />
      <stop
         style="stop-color:#000000;stop-opacity:0;"
         offset="1"
         id="stop3193" />
    </linearGradient>
    <linearGradient
       id="linearGradient3197">
      <stop
         style="stop-color:#e4e0e1;stop-opacity:1;"
         offset="0"
         id="stop3199" />
      <stop
         style="stop-color:#e4afe0;stop-opacity:1;"
         offset="1"
         id="stop3201" />
    </linearGradient>
    <marker
       inkscape:stockid="Arrow1Lend"
       orient="auto"
       refY="0.0"
       refX="0.0"
       id="Arrow1Lend"
       style="overflow:visible;">
      <path
         id="path4357"
         d="M 0.0,0.0 L 5.0,-5.0 L -12.5,0.0 L 5.0,5.0 L 0.0,0.0 z "
         style="fill-rule:evenodd;stroke:#000000;stroke-width:1.0pt;marker-start:none;"
         transform="scale(0.8) rotate(180) translate(12.5,0)" />
    </marker>
    <linearGradient
       id="linearGradient3384">
      <stop
         style="stop-color:#00ffff;stop-opacity:1;"
         offset="0"
         id="stop3386" />
      <stop
         style="stop-color:#000000;stop-opacity:1"
         offset="1"
         id="stop3388" />
    </linearGradient>
    <linearGradient
       id="linearGradient3252">
      <stop
         style="stop-color:#ffffff;stop-opacity:1"
         offset="0"
         id="stop3254" />
      <stop
         style="stop-color:#7f7fff;stop-opacity:0;"
         offset="1"
         id="stop3256" />
    </linearGradient>
    <linearGradient
       inkscape:collect="always"
       xlink:href="#linearGradient3384"
       id="linearGradient2358"
       gradientUnits="userSpaceOnUse"
       gradientTransform="matrix(0.2377304,0.2377304,-0.2377304,0.2377304,39.711053,40.887748)"
       x1="25.398125"
       y1="63.345894"
       x2="90.625114"
       y2="63.345894" />
    <radialGradient
       inkscape:collect="always"
       xlink:href="#linearGradient3252"
       id="radialGradient2360"
       gradientUnits="userSpaceOnUse"
       gradientTransform="matrix(0.1887019,0,0,0.1887019,23.423531,53.628189)"
       cx="58.01162"
       cy="63.345894"
       fx="58.01162"
       fy="63.345894"
       r="33.113495" />
    <radialGradient
       inkscape:collect="always"
       xlink:href="#linearGradient3197"
       id="radialGradient2312"
       gradientUnits="userSpaceOnUse"
       gradientTransform="matrix(-1.7093778,0,0,1.91594,141.7618,8.2882328)"
       cx="50.059151"
       cy="48.853989"
       fx="50.059151"
       fy="48.853989"
       r="42.138133" />
    <radialGradient
       inkscape:collect="always"
       xlink:href="#linearGradient3189"
       id="radialGradient2314"
       gradientUnits="userSpaceOnUse"
       gradientTransform="matrix(-1.7093778,0,0,1.91594,141.7618,8.2882328)"
       cx="50.059151"
       cy="48.853989"
       fx="50.059151"
       fy="48.853989"
       r="42.138133" />
    <radialGradient
       inkscape:collect="always"
       xlink:href="#linearGradient3197"
       id="radialGradient3295"
       gradientUnits="userSpaceOnUse"
       gradientTransform="matrix(-1.7093778,0,0,1.91594,141.7618,8.2882328)"
       cx="50.059151"
       cy="48.853989"
       fx="50.059151"
       fy="48.853989"
       r="42.138133" />
    <radialGradient
       inkscape:collect="always"
       xlink:href="#linearGradient3189"
       id="radialGradient3297"
       gradientUnits="userSpaceOnUse"
       gradientTransform="matrix(-1.7093778,0,0,1.91594,141.7618,8.2882328)"
       cx="50.059151"
       cy="48.853989"
       fx="50.059151"
       fy="48.853989"
       r="42.138133" />
    <linearGradient
       inkscape:collect="always"
       xlink:href="#linearGradient3384"
       id="linearGradient3244"
       gradientUnits="userSpaceOnUse"
       gradientTransform="matrix(0.3720963,0.191646,-0.191646,0.3720963,-72.244652,-12.128755)"
       x1="31.565292"
       y1="63.272114"
       x2="90.625114"
       y2="63.345894" />
    <radialGradient
       inkscape:collect="always"
       xlink:href="#linearGradient3252"
       id="radialGradient3246"
       gradientUnits="userSpaceOnUse"
       gradientTransform="matrix(0.2237392,-7.1617456e-2,7.1617456e-2,0.2237392,-86.721032,9.1588278)"
       cx="58.01162"
       cy="63.345894"
       fx="58.01162"
       fy="63.345894"
       r="33.113495" />
  </defs>
  <path
     transform="translate(-78.501357,-18.053734)"
     d="M 122.4841 47.27103 A 16.939291 16.939291 0 1 1  88.605516,47.27103 A 16.939291 16.939291 0 1 1  122.4841 47.27103 z"
     sodipodi:ry="16.939291"
     sodipodi:rx="16.939291"
     sodipodi:cy="47.27103"
     sodipodi:cx="105.54481"
     id="path2346"
     style="fill:#7e8184;fill-opacity:1;fill-rule:evenodd;stroke:none;stroke-width:1px;stroke-linecap:butt;stroke-linejoin:miter;stroke-opacity:1"
     sodipodi:type="arc" />
  <path
     transform="translate(-23.815394,32.283829)"
     d="M 122.4841 47.27103 A 16.939291 16.939291 0 1 1  88.605516,47.27103 A 16.939291 16.939291 0 1 1  122.4841 47.27103 z"
     sodipodi:ry="16.939291"
     sodipodi:rx="16.939291"
     sodipodi:cy="47.27103"
     sodipodi:cx="105.54481"
     id="path2391"
     style="fill:none;fill-opacity:1;fill-rule:evenodd;stroke:#000000;stroke-width:2;stroke-linecap:butt;stroke-linejoin:miter;stroke-miterlimit:4;stroke-dasharray:2,4;stroke-dashoffset:0;stroke-opacity:1"
     sodipodi:type="arc" />
  <g
     id="g3289"
     transform="matrix(0.9951275,-9.8596358e-2,9.8596358e-2,0.9951275,-3.8362155,2.1037647)">
    <path
       sodipodi:nodetypes="cccccccc"
       id="path4225"
       d="M 45.647241,55.914248 L 35.369931,62.314723 L 69.448149,76.020731 L 62.157749,40.020323 L 54.26477,48.742233 C 53.447769,47.760566 43.048658,35.463264 42.350094,34.426163 L 33.732566,41.598178 L 45.647241,55.914248 z "
       style="fill:#282828;fill-opacity:1;fill-rule:evenodd;stroke:none;stroke-width:4.0367074;stroke-linecap:round;stroke-linejoin:round;stroke-miterlimit:4;stroke-dashoffset:0;stroke-opacity:1" />
    <g
       transform="matrix(-0.4407315,-0.5295606,0.5295606,-0.4407315,43.664998,101.02973)"
       id="g4217">
      <path
         style="fill:none;fill-opacity:1;fill-rule:evenodd;stroke:#000000;stroke-width:5.63700008;stroke-linecap:round;stroke-linejoin:round;stroke-miterlimit:4;stroke-dasharray:none;stroke-dashoffset:0;stroke-opacity:1"
         d="M 56.191798,40.582064 L 58.593618,23.173764 L 11.661868,48.466259 L 58.593618,73.75875 L 56.191798,56.85504 C 58.045528,56.85504 81.420038,56.67144 83.225658,56.85504 L 83.225658,40.582064 L 56.191798,40.582064 z "
         id="path3242"
         sodipodi:nodetypes="cccccccc" />
      <path
         style="fill:url(#radialGradient3295);fill-opacity:1;fill-rule:evenodd;stroke:url(#radialGradient3297);stroke-width:4.0367074;stroke-linecap:round;stroke-linejoin:round;stroke-miterlimit:4;stroke-dashoffset:0;stroke-opacity:1"
         d="M 56.191794,40.582064 L 58.593619,23.173764 L 11.661867,48.466259 L 58.593619,73.75875 L 56.191794,56.85504 C 58.045532,56.85504 81.420037,56.67144 83.225659,56.85504 L 83.225659,40.582064 L 56.191794,40.582064 z "
         id="path3176"
         sodipodi:nodetypes="cccccccc" />
    </g>
  </g>
  <g
     id="g3239"
     transform="matrix(1.214071,0,0,1.214071,95.002344,-7.0135718)">
    <path
       d="M -49.917482,18.489775 C -47.617662,25.670285 -51.575022,33.355475 -58.755942,35.654045 C -65.936862,37.952605 -73.621362,33.993895 -75.918662,26.812575 C -78.218482,19.632065 -74.261122,11.946875 -67.080212,9.6483108 C -59.899292,7.3497468 -52.214792,11.308454 -49.917482,18.489775 L -49.917482,18.489775 z "
       style="fill:#0000ff;fill-opacity:1;fill-rule:evenodd;stroke:#000000;stroke-width:1;stroke-linecap:butt;stroke-linejoin:miter;stroke-miterlimit:4;stroke-dasharray:none;stroke-opacity:1"
       id="path3560" />
    <path
       d="M -50.663372,28.809965 C -54.114542,35.513565 -62.347072,38.149545 -69.050082,34.697195 C -75.753082,31.244855 -78.387612,23.011865 -74.934092,16.309465 C -71.482922,9.6058578 -63.250402,6.9698851 -56.547392,10.422228 C -49.844392,13.874572 -47.209852,22.107565 -50.663372,28.809965 L -50.663372,28.809965 z "
       style="opacity:0.71739131;fill:url(#linearGradient3244);fill-opacity:1;fill-rule:evenodd;stroke:none;stroke-width:1px;stroke-linecap:butt;stroke-linejoin:miter;stroke-opacity:1"
       id="path3562" />
    <path
       d="M -61.907972,16.841445 C -60.617132,20.871695 -62.838302,25.185205 -66.868782,26.475335 C -70.899252,27.765465 -75.212382,25.543535 -76.501802,21.512835 C -77.792632,17.482585 -75.571462,13.169076 -71.540992,11.878948 C -67.510512,10.588819 -63.197392,12.810746 -61.907972,16.841445 L -61.907972,16.841445 z "
       style="fill:url(#radialGradient3246);fill-opacity:1;fill-rule:evenodd;stroke:none;stroke-width:1px;stroke-linecap:butt;stroke-linejoin:miter;stroke-opacity:1"
       id="path3564" />
  </g>
</svg>
